bundles/org.openhab.ui.habpanel/web/assets/icons/freepik-gadgets/tv-remote-control.svg

<svg xmlns="http://www.w3.org/2000/svg" viewBox="0 0 415.99 415.99" style="enable-background:new 0 0 415.99 415.99" xml:space="preserve"><path d="M159.923 215.759c10.988 0 19.929-8.94 19.929-19.928 0-10.989-8.94-19.929-19.929-19.929s-19.929 8.94-19.929 19.929c0 10.988 8.941 19.928 19.929 19.928zm0-23.858a3.934 3.934 0 0 1 3.929 3.929c0 2.166-1.763 3.928-3.929 3.928s-3.929-1.762-3.929-3.928a3.934 3.934 0 0 1 3.929-3.929zM255.892 215.759c10.989 0 19.93-8.94 19.93-19.928 0-10.989-8.94-19.929-19.93-19.929-10.988 0-19.928 8.94-19.928 19.929 0 10.988 8.939 19.928 19.928 19.928zm0-23.858a3.934 3.934 0 0 1 3.93 3.929 3.933 3.933 0 0 1-3.93 3.928 3.932 3.932 0 0 1-3.928-3.928 3.933 3.933 0 0 1 3.928-3.929zM207.986 215.759c10.988 0 19.929-8.94 19.929-19.928 0-10.989-8.94-19.929-19.929-19.929s-19.929 8.94-19.929 19.929c.001 10.988 8.941 19.928 19.929 19.928zm0-23.858a3.934 3.934 0 0 1 3.929 3.929c0 2.166-1.763 3.928-3.929 3.928s-3.929-1.762-3.929-3.928a3.935 3.935 0 0 1 3.929-3.929zM159.923 168.003c10.988 0 19.929-8.94 19.929-19.928 0-10.989-8.94-19.929-19.929-19.929s-19.929 8.94-19.929 19.929c0 10.988 8.941 19.928 19.929 19.928zm0-23.857a3.934 3.934 0 0 1 3.929 3.929c0 2.166-1.763 3.928-3.929 3.928s-3.929-1.762-3.929-3.928a3.934 3.934 0 0 1 3.929-3.929zM255.892 168.003c10.989 0 19.93-8.94 19.93-19.928 0-10.989-8.94-19.929-19.93-19.929-10.988 0-19.928 8.94-19.928 19.929 0 10.988 8.939 19.928 19.928 19.928zm0-23.857a3.934 3.934 0 0 1 3.93 3.929 3.933 3.933 0 0 1-3.93 3.928 3.932 3.932 0 0 1-3.928-3.928 3.933 3.933 0 0 1 3.928-3.929zM207.986 168.003c10.988 0 19.929-8.94 19.929-19.928 0-10.989-8.94-19.929-19.929-19.929s-19.929 8.94-19.929 19.929c.001 10.988 8.941 19.928 19.929 19.928zm0-23.857a3.934 3.934 0 0 1 3.929 3.929c0 2.166-1.763 3.928-3.929 3.928s-3.929-1.762-3.929-3.928a3.935 3.935 0 0 1 3.929-3.929zM159.923 119.658c10.988 0 19.929-8.94 19.929-19.929S170.912 79.8 159.923 79.8s-19.929 8.94-19.929 19.929 8.941 19.929 19.929 19.929zm0-23.857c2.166 0 3.929 1.762 3.929 3.929s-1.763 3.929-3.929 3.929-3.929-1.762-3.929-3.929 1.763-3.929 3.929-3.929zM159.923 71.825c10.988 0 19.929-8.94 19.929-19.929a19.792 19.792 0 0 0-5.837-14.091 19.798 19.798 0 0 0-14.092-5.837c-10.988 0-19.929 8.94-19.929 19.929s8.941 19.928 19.929 19.928zm0-23.858c1.416 0 2.348.72 2.778 1.151.43.43 1.15 1.362 1.15 2.778 0 2.167-1.763 3.929-3.929 3.929s-3.929-1.762-3.929-3.929 1.764-3.929 3.93-3.929zM255.892 119.658c10.989 0 19.93-8.94 19.93-19.929s-8.94-19.929-19.93-19.929c-10.988 0-19.928 8.94-19.928 19.929s8.939 19.929 19.928 19.929zm0-23.857c2.167 0 3.93 1.762 3.93 3.929s-1.763 3.929-3.93 3.929c-2.166 0-3.928-1.762-3.928-3.929s1.762-3.929 3.928-3.929zM207.986 119.658c10.988 0 19.929-8.94 19.929-19.929S218.975 79.8 207.986 79.8s-19.929 8.94-19.929 19.929 8.941 19.929 19.929 19.929zm0-23.857c2.166 0 3.929 1.762 3.929 3.929s-1.763 3.929-3.929 3.929-3.929-1.762-3.929-3.929 1.763-3.929 3.929-3.929z"/><path d="M274.041 0H141.949c-18.748 0-34 15.252-34 34v347.99c0 18.748 15.252 34 34 34h132.092c18.748 0 34-15.252 34-34V34c0-18.748-15.252-34-34-34zm18 381.99c0 9.925-8.075 18-18 18H141.949c-9.925 0-18-8.075-18-18V34c0-9.925 8.075-18 18-18h132.092c9.925 0 18 8.075 18 18v347.99z"/><path d="M207.907 295.57c10.999 0 19.947-8.948 19.947-19.947v-15.8c0-10.999-8.948-19.947-19.947-19.947s-19.947 8.948-19.947 19.947v15.8c0 10.999 8.948 19.947 19.947 19.947zm-3.947-35.746c0-2.176 1.771-3.947 3.947-3.947s3.947 1.771 3.947 3.947v15.8c0 2.176-1.771 3.947-3.947 3.947s-3.947-1.771-3.947-3.947v-15.8zM207.907 320.394c-10.999 0-19.947 8.948-19.947 19.947v15.799c0 10.999 8.948 19.947 19.947 19.947s19.947-8.948 19.947-19.947v-15.799c0-10.999-8.948-19.947-19.947-19.947zm3.947 35.746c0 2.177-1.771 3.947-3.947 3.947s-3.947-1.771-3.947-3.947v-15.799c0-2.176 1.771-3.947 3.947-3.947s3.947 1.771 3.947 3.947v15.799zM195.496 307.982c0-10.999-8.948-19.948-19.947-19.948h-15.8c-10.998 0-19.946 8.949-19.946 19.948s8.948 19.947 19.946 19.947h15.8c10.999 0 19.947-8.948 19.947-19.947zm-19.947 3.947h-15.8a3.951 3.951 0 0 1-3.946-3.947 3.952 3.952 0 0 1 3.946-3.948h15.8a3.952 3.952 0 0 1 3.947 3.948 3.95 3.95 0 0 1-3.947 3.947zM256.065 288.035h-15.799c-10.999 0-19.947 8.949-19.947 19.948s8.948 19.947 19.947 19.947h15.799c10.999 0 19.947-8.948 19.947-19.947.001-11-8.948-19.948-19.947-19.948zm0 23.894h-15.799a3.951 3.951 0 0 1-3.947-3.947 3.952 3.952 0 0 1 3.947-3.948h15.799a3.952 3.952 0 0 1 3.947 3.948 3.95 3.95 0 0 1-3.947 3.947z"/></svg>

<?xml version="1.0" encoding="iso-8859-1"?>
<!-- Generator: Adobe Illustrator 17.1.0, SVG Export Plug-In . SVG Version: 6.00 Build 0)  -->
<!DOCTYPE svg PUBLIC "-//W3C//DTD SVG 1.1//EN" "http://www.w3.org/Graphics/SVG/1.1/DTD/svg11.dtd">
<svg version="1.1" id="Capa_1" xmlns="http://www.w3.org/2000/svg" xmlns:xlink="http://www.w3.org/1999/xlink" x="0px" y="0px"
	 viewBox="0 0 415.99 415.99" style="enable-background:new 0 0 415.99 415.99;" xml:space="preserve">
<g>
	<path d="M159.923,215.759c10.988,0,19.929-8.94,19.929-19.928c0-10.989-8.94-19.929-19.929-19.929s-19.929,8.94-19.929,19.929
		C139.994,206.819,148.935,215.759,159.923,215.759z M159.923,191.901c2.166,0,3.929,1.763,3.929,3.929
		c0,2.166-1.763,3.928-3.929,3.928s-3.929-1.762-3.929-3.928C155.994,193.664,157.757,191.901,159.923,191.901z"/>
	<path d="M255.892,215.759c10.989,0,19.93-8.94,19.93-19.928c0-10.989-8.94-19.929-19.93-19.929
		c-10.988,0-19.928,8.94-19.928,19.929C235.964,206.819,244.903,215.759,255.892,215.759z M255.892,191.901
		c2.167,0,3.93,1.763,3.93,3.929c0,2.166-1.763,3.928-3.93,3.928c-2.166,0-3.928-1.762-3.928-3.928
		C251.964,193.664,253.726,191.901,255.892,191.901z"/>
	<path d="M207.986,215.759c10.988,0,19.929-8.94,19.929-19.928c0-10.989-8.94-19.929-19.929-19.929s-19.929,8.94-19.929,19.929
		C188.058,206.819,196.998,215.759,207.986,215.759z M207.986,191.901c2.166,0,3.929,1.763,3.929,3.929
		c0,2.166-1.763,3.928-3.929,3.928s-3.929-1.762-3.929-3.928C204.058,193.664,205.82,191.901,207.986,191.901z"/>
	<path d="M159.923,168.003c10.988,0,19.929-8.94,19.929-19.928c0-10.989-8.94-19.929-19.929-19.929s-19.929,8.94-19.929,19.929
		C139.994,159.063,148.935,168.003,159.923,168.003z M159.923,144.146c2.166,0,3.929,1.763,3.929,3.929
		c0,2.166-1.763,3.928-3.929,3.928s-3.929-1.762-3.929-3.928C155.994,145.909,157.757,144.146,159.923,144.146z"/>
	<path d="M255.892,168.003c10.989,0,19.93-8.94,19.93-19.928c0-10.989-8.94-19.929-19.93-19.929
		c-10.988,0-19.928,8.94-19.928,19.929C235.964,159.063,244.903,168.003,255.892,168.003z M255.892,144.146
		c2.167,0,3.93,1.763,3.93,3.929c0,2.166-1.763,3.928-3.93,3.928c-2.166,0-3.928-1.762-3.928-3.928
		C251.964,145.909,253.726,144.146,255.892,144.146z"/>
	<path d="M207.986,168.003c10.988,0,19.929-8.94,19.929-19.928c0-10.989-8.94-19.929-19.929-19.929s-19.929,8.94-19.929,19.929
		C188.058,159.063,196.998,168.003,207.986,168.003z M207.986,144.146c2.166,0,3.929,1.763,3.929,3.929
		c0,2.166-1.763,3.928-3.929,3.928s-3.929-1.762-3.929-3.928C204.058,145.909,205.82,144.146,207.986,144.146z"/>
	<path d="M159.923,119.658c10.988,0,19.929-8.94,19.929-19.929s-8.94-19.929-19.929-19.929s-19.929,8.94-19.929,19.929
		S148.935,119.658,159.923,119.658z M159.923,95.801c2.166,0,3.929,1.762,3.929,3.929s-1.763,3.929-3.929,3.929
		s-3.929-1.762-3.929-3.929S157.757,95.801,159.923,95.801z"/>
	<path d="M159.923,71.825c10.988,0,19.929-8.94,19.929-19.929c0-5.324-2.073-10.329-5.837-14.091
		c-3.764-3.764-8.768-5.837-14.092-5.837c-10.988,0-19.929,8.94-19.929,19.929S148.935,71.825,159.923,71.825z M159.923,47.967
		c1.416,0,2.348,0.72,2.778,1.151c0.43,0.43,1.15,1.362,1.15,2.778c0,2.167-1.763,3.929-3.929,3.929s-3.929-1.762-3.929-3.929
		S157.757,47.967,159.923,47.967z"/>
	<path d="M255.892,119.658c10.989,0,19.93-8.94,19.93-19.929s-8.94-19.929-19.93-19.929c-10.988,0-19.928,8.94-19.928,19.929
		S244.903,119.658,255.892,119.658z M255.892,95.801c2.167,0,3.93,1.762,3.93,3.929s-1.763,3.929-3.93,3.929
		c-2.166,0-3.928-1.762-3.928-3.929S253.726,95.801,255.892,95.801z"/>
	<path d="M207.986,119.658c10.988,0,19.929-8.94,19.929-19.929s-8.94-19.929-19.929-19.929s-19.929,8.94-19.929,19.929
		S196.998,119.658,207.986,119.658z M207.986,95.801c2.166,0,3.929,1.762,3.929,3.929s-1.763,3.929-3.929,3.929
		s-3.929-1.762-3.929-3.929S205.82,95.801,207.986,95.801z"/>
	<path d="M274.041,0H141.949c-18.748,0-34,15.252-34,34v347.99c0,18.748,15.252,34,34,34h132.092c18.748,0,34-15.252,34-34V34
		C308.041,15.252,292.789,0,274.041,0z M292.041,381.99c0,9.925-8.075,18-18,18H141.949c-9.925,0-18-8.075-18-18V34
		c0-9.925,8.075-18,18-18h132.092c9.925,0,18,8.075,18,18V381.99z"/>
	<path d="M207.907,295.57c10.999,0,19.947-8.948,19.947-19.947v-15.8c0-10.999-8.948-19.947-19.947-19.947
		s-19.947,8.948-19.947,19.947v15.8C187.96,286.622,196.908,295.57,207.907,295.57z M203.96,259.824
		c0-2.176,1.771-3.947,3.947-3.947s3.947,1.771,3.947,3.947v15.8c0,2.176-1.771,3.947-3.947,3.947s-3.947-1.771-3.947-3.947V259.824
		z"/>
	<path d="M207.907,320.394c-10.999,0-19.947,8.948-19.947,19.947v15.799c0,10.999,8.948,19.947,19.947,19.947
		s19.947-8.948,19.947-19.947v-15.799C227.854,329.342,218.906,320.394,207.907,320.394z M211.854,356.14
		c0,2.177-1.771,3.947-3.947,3.947s-3.947-1.771-3.947-3.947v-15.799c0-2.176,1.771-3.947,3.947-3.947s3.947,1.771,3.947,3.947
		V356.14z"/>
	<path d="M195.496,307.982c0-10.999-8.948-19.948-19.947-19.948h-15.8c-10.998,0-19.946,8.949-19.946,19.948
		c0,10.999,8.948,19.947,19.946,19.947h15.8C186.548,327.929,195.496,318.981,195.496,307.982z M175.549,311.929h-15.8
		c-2.176,0-3.946-1.771-3.946-3.947c0-2.177,1.771-3.948,3.946-3.948h15.8c2.177,0,3.947,1.771,3.947,3.948
		C179.496,310.159,177.726,311.929,175.549,311.929z"/>
	<path d="M256.065,288.035h-15.799c-10.999,0-19.947,8.949-19.947,19.948c0,10.999,8.948,19.947,19.947,19.947h15.799
		c10.999,0,19.947-8.948,19.947-19.947C276.013,296.983,267.064,288.035,256.065,288.035z M256.065,311.929h-15.799
		c-2.177,0-3.947-1.771-3.947-3.947c0-2.177,1.771-3.948,3.947-3.948h15.799c2.177,0,3.947,1.771,3.947,3.948
		C260.013,310.159,258.242,311.929,256.065,311.929z"/>
</g>
<g>
</g>
<g>
</g>
<g>
</g>
<g>
</g>
<g>
</g>
<g>
</g>
<g>
</g>
<g>
</g>
<g>
</g>
<g>
</g>
<g>
</g>
<g>
</g>
<g>
</g>
<g>
</g>
<g>
</g>
</svg>
